X:1

T:Whoa Ho Dobbin

M:2/4

L:1/8

S:Shaw – Cowboy Dances  (1943)

Z:AK/Fiddler’s Companion

K:C

EG Ac|B/c/d e>d|cG Ac|B/c/d c2|EG Ac|B/c/d e>d|cG Ac|B/c/d c2||

EG AG|cG AG|cA A/B/c|dB G2|EG AG|cG AG|cA A/B/c|GE C2||

                       

WHOA MULE (WHOA) [1]. AKA and see "Fortune," "Kicking Mule." Old‑Time, Breakdown. USA; Missouri, Oklahoma, Georgia, southwestern Va., western North Carolina. G Major. Standard tuning. AABB. This "band" tune and tune title was characteristic of Patrick County, southwestern Va. (Tom Carter & Blanton Owen, 1976), and Surry County, North Carolina (Kerry Blech). It was one of the songs recorded in Atlanta, Georgia, by Roba Stanley, fourteen years old, in August 1924 for OKeh Records. She, “according to country music historians, became America’s first recorded female country singer (Wayne W. Daniel, Pickin’ on Peachtree, 1990), but sang the song on the recording as a duet with her father, R.M. “Rob” Stanley, the winner of the Georgia state fiddling championship in 1920. Sources for notated versions: Bill Katon (Tebbetts, Missouri) [Christeson]: Max Collins (Pottawatomie County, Oklahoma) [Thede].

***

(Spoken)

"Say, look hyah, Jane!

Doancha wanna take a ride?"

"Well, doan care if I do."

So he hitch up his mule an' staht out.

***

(Sung)

Well, it's whoa, mule, git up and down,

'Til ah says who‑‑‑‑a mule.

***

Well its git up and down

Just as fas' as you can

Fer I'se goin' to feed ye 

All the oats an' bran.

***

An' its who‑‑‑a mule, git up and down,

'Til Ah say who‑‑‑a mule.

***

(Spoken)

"Ain't he a mule, Miss Jane?"

"Uh‑huh."

***

Christeson (Old Time Fiddlers Repertory, vol. 2), 1984; pg. 87. The Devil's Box, pg. 23. Thede (The Fiddle Book), 1967; pg. 130. In the repertoire of Phil Reeve of the Georgia Yellow Hammers (north Ga.). Bluebird 5591B (78 RPM), Gid Tanner and His Skillet Lickers (north Ga.) {1934}. Document 8039, “The Hill Billies/Al Hopkins and His Buckle Busters: Compoete Recorded Works in Chronological Order, Vol. 1” (reissue). In the repertoire of the Kimble Family, Patrick County, Va., and Benton Flippen, Surry County, North Carolina.

 

WHOA MULE [2]. Old-Time, Breakdown. G Major. Standard tuning. AABBBB. Some similarities to version #1. Source for notated version: John Francis [Phillips]. Phillips (Traditional American Fiddle Tunes, vol. 1), 1994; pg. 256.

 

WHOA MULE [3]. Old‑Time, listed as a 'Piece' by Christeson. USA, Missouri. G Major. Standard tuning. AB.

***

I went up on the mountain, To give my horn a blow,

I looked down the other side, And there I saw my beau.

***

I went up to see Miss Liza, She was standing in the door,

Shoes and stokins' in her hand, And feet all over the floor.

***

CHO:

Whoa, mule, whoa! Whoa, mule, I day!

Just hop right in, Miss Liza, And hold on to the sleigh. (Ford)

***

Source for notated version: Vee Latty (Callaway County, Missouri) [Christeson]. R.P. Christeson (Old Time Fiddlers Repertory, Vol. 2), 1984; pg. 129.

                       

WHOA MULE, CAN’T GET THE DAMN SADDLE ON. American, Breakdown. USA, Texas. G Major. From the playing of Texas fiddler Major Franklin.

                       

WHOE’ER SHE BE (Be n-Eirinn I). Irish, Air (4/4 time). F Major. Standard tuning. One part. Joyce (1873) relates that the burden (“Ben-erinn i”) is common to several love songs and prints a verse from one of the best, written in the 18th century by the poet William “Blind William,” Herrernan, a native of Shronell, Tipperary (the entire song can be found in Walsh’s Irish Popular Songs).

***

But O! One noon I clomb a hill,

To sigh alone, to weep my fill;

And there Heav’n’s mercy sent to me,

My treasure rare, Ben-e-rinn-i, Ben-e-rinn-I

***

Source for notated version: noted in 1853 from the singing of Michael Dinneen, Coolfree, County Limerick [Joyce]. Howe (1000 Jigs and Reels), c. 1867; pg. 22. Joyce (Ancient Irish Music), 1890; No. 46, pg. 47.

